icons/wifi-off.svg

<svg width="24" height="24" viewBox="0 0 24 24" fill="none" xmlns="http://www.w3.org/2000/svg">
<g clip-path="url(#clip0)">
<path fill-rule="evenodd" clip-rule="evenodd" d="M0.292893 0.292893C0.683417 -0.0976311 1.31658 -0.0976311 1.70711 0.292893L23.7071 22.2929C24.0976 22.6834 24.0976 23.3166 23.7071 23.7071C23.3166 24.0976 22.6834 24.0976 22.2929 23.7071L15.5782 16.9924C15.2946 17.0778 14.9761 17.0369 14.7148 16.8536C13.9243 16.2989 12.9771 16 12.0047 16C11.0323 16 10.0851 16.2989 9.29461 16.8536C8.84252 17.1708 8.21886 17.0615 7.90164 16.6094C7.58442 16.1573 7.69376 15.5337 8.14585 15.2164C9.27441 14.4246 10.623 14 12.0047 14C12.2085 14 12.4116 14.0093 12.6133 14.0275L9.84232 11.2565C8.44598 11.5875 7.13589 12.232 6.01904 13.1507C5.59253 13.5016 4.96234 13.4403 4.61148 13.0138C4.26061 12.5872 4.32194 11.9571 4.74845 11.6062C5.7918 10.7479 6.97294 10.0878 8.23248 9.64669L5.94797 7.36218C4.77778 7.91401 3.68167 8.62627 2.69443 9.48575C2.27788 9.84838 1.64622 9.80468 1.28358 9.38813C0.920946 8.97158 0.964649 8.33993 1.3812 7.97729C2.32731 7.15363 3.3605 6.44875 4.45712 5.87133L0.292893 1.70711C-0.0976311 1.31658 -0.0976311 0.683417 0.292893 0.292893ZM12.0378 6C11.4357 6 10.8372 6.03796 10.2457 6.11262C9.69778 6.18178 9.19753 5.79366 9.12836 5.24572C9.0592 4.69778 9.44732 4.19753 9.99526 4.12836C10.6695 4.04326 11.3516 4 12.0378 4C15.9599 4 19.7491 5.41315 22.6944 7.97729C23.111 8.33993 23.1547 8.97158 22.792 9.38813C22.4294 9.80468 21.7977 9.84838 21.3812 9.48575C18.8021 7.24045 15.48 6 12.0378 6ZM14.6941 10.2917C14.883 9.77269 15.4569 9.50515 15.9758 9.69408C17.1856 10.1345 18.3205 10.7781 19.3272 11.6062C19.7537 11.9571 19.815 12.5872 19.4641 13.0138C19.1133 13.4403 18.4831 13.5016 18.0566 13.1507C17.227 12.4683 16.2908 11.9371 15.2917 11.5734C14.7727 11.3845 14.5051 10.8106 14.6941 10.2917ZM11 20C11 19.4477 11.4477 19 12 19H12.0095C12.5617 19 13.0095 19.4477 13.0095 20C13.0095 20.5523 12.5617 21 12.0095 21H12C11.4477 21 11 20.5523 11 20Z" fill="black"/>
</g>
<defs>
<clipPath id="clip0">
<rect width="24" height="24" fill="white"/>
</clipPath>
</defs>
</svg>

<svg
  width="24"
  height="24"
  viewBox="0 0 24 24"
  xmlns="http://www.w3.org/2000/svg"
>
  <g clip-path="url(#a)">
    <path
      fill-rule="evenodd"
      clip-rule="evenodd"
      d="M.293.293a1 1 0 0 1 1.414 0l22 22a1 1 0 0 1-1.414 1.414l-6.715-6.715a.998.998 0 0 1-.863-.138 4.72 4.72 0 0 0-2.71-.854 4.72 4.72 0 0 0-2.71.854 1 1 0 0 1-1.15-1.638 6.72 6.72 0 0 1 4.468-1.188l-2.77-2.771a9.448 9.448 0 0 0-3.824 1.894 1 1 0 1 1-1.27-1.545 11.43 11.43 0 0 1 3.483-1.96L5.948 7.363a14.137 14.137 0 0 0-3.254 2.124 1 1 0 0 1-1.313-1.509 16.126 16.126 0 0 1 3.076-2.106L.293 1.707a1 1 0 0 1 0-1.414zM12.038 6c-.602 0-1.2.038-1.792.113a1 1 0 0 1-.25-1.985 16.232 16.232 0 0 1 12.7 3.849 1 1 0 1 1-1.315 1.509A14.233 14.233 0 0 0 12.038 6zm2.656 4.292a1 1 0 0 1 1.282-.598c1.21.44 2.344 1.084 3.351 1.912a1 1 0 0 1-1.27 1.545 9.428 9.428 0 0 0-2.765-1.578 1 1 0 0 1-.598-1.281zM11 20a1 1 0 0 1 1-1h.01a1 1 0 0 1 0 2H12a1 1 0 0 1-1-1z"
    />
  </g>
  <defs>
    <clipPath id="a">
      <rect width="24" height="24" />
    </clipPath>
  </defs>
</svg>
